X: 19
M: 3/2
L: 1/4
P: AA BB ad lib.
Q: 1/2=84 "stately"
K: Bb
V: 1
"A"[|] FDF |\
e3 g f(e/d/) | c3 ", "F DF |\
"B"|: bgb |\
a2 ga g=e | f3 ", "g _eg |\
fd bc dB | c3 ", "gGB |\
c2 d2 Bc  | A3 ", "F DF |\
V: 2
|: DB,D |\
EF D2 FG | F2 CD B,D | B,2 A,G, A,/B,/C | D3 :|
V: 3 clef=bass middle=d
"Bb"B2 B2 "F"A"Bb"B | "F"F4 "Bb"B2 | "Bb"B2 B2 "F"A"Bb"B | "F"F2 fe "Bb"d2 |
"Cm"c2 "Eb"e2 "Bb"d"Eb"e | "F"f2 f2 "Bb"b"F"a | "Gm"g2 "Dm"d"Gm"g "Cm"c"F"f | "Bb"B3 :|
|: "Bb"B"EB"e"Bb"B |\
"F"f2 "C"c"F"f "C"=ec | "Dm"d2 "Gm"GB "Cm"cB | "F"A"Bb"B "Gm"G"F"A "Bb"B2 | "F"f2 "Cm"e3 d |
"Cm"cA "Bb"Bb d"Cm"e | "F"f4 "Bb"f2 | "Gm"g2 "Dm"d"Eb"e "F7"fF | "Bb"B3 :|


